X:539
T:Leg of the Duck, The
T:Leis Lacha
R:jig
H:See also #477, #254
Z:id:hn-jig-539
M:6/8
L:1/8
K:G
BGG AGA | BAB GED | EAA ABA | EAA AGA |
BGG AGA | BAB GED | EGG GED | EGG G2A :|
|: Bcd ABc | BAB GED | EAA ABA | EAA AGA |
Bcd ABc | BAB GED | EGG GED | EGG G2A :|
W:1. I gave it to Kitty because she was pretty,
W:   The leg of the duck, the leg of the duck.
W:   I gave it to Molly because she was jolly,
W:   The leg of the duck, the leg of the duck.
W:
W:2. I gave it to Nelly to stick in her belly
W:   The leg of the duck, the leg of the duck.
W:   She has it, she's got it, wherever she put it,
W:   The leg of the duck, the leg of the duck.

